X: 5
T: Cotillon V.     la Sorciere.
%R: jig
B: J. Longman "XXIV New Cotillons or French Dances", London 1770 #5
F: http://http://www.vwml.org/browse/browse-collections-dance-tune-books/browse-longmans 2015-2-22
Z: 2015 John Chambers <jc:trillian.mit.edu>
M: 6/8
L: 1/8
K: D
% - - - - - - - - - - - - - - - - - - - - - - - - - - - - -
% Voice 1 is formatted for a small scale.
V: 1 clef=treble
|:\
BBB A3 | GGG F3 | BBB (Ad)G | (FG)E D3 |\
fff e2A | ddd c2F | BBB AdG | (FG)E D3 :|
|:\
fff e3 | (d/e/f)d (ec)A | BBB A3 | (B/c/d)B (AF)D |\
GGG F3 | (G/A/B)G (Ad)c | (B/c/d)B (c/d/e)c | d3 D3 :|
% - - - - - - - - - - - - - - - - - - - - - - - - - - - - -
% Voice 2 preserves the original staff breaks.
V: 2 clef=bass middle=d
|:\
g3 f3 | e3 d3 | g3 f2g | a2A d3 |\
d'3 c'3 | b3 a3 | g3 f2g | a2A d3 :|
|:\
d'3 c'3 | d'3 a2f | g3 f3 | g3 f3 |\
e3 d3 | e3 f3 | g3 a3 | d'3 d3 :|
% - - - - - - - - - - Dance description - - - - - - - - - -
%%begintext align
%% All round: Chasse\`e a quatre, threaten with one Finger, clap hands three
%% times, hands round four; the same by the other four: Eery [sic] Gentleman turn
%% his Partner into her Place.
%%endtext
%%text See the title page for the set of 9 "changes" for this dance.
